assets/images/Visitor/search-icon.svg

<svg width="15" height="15" viewBox="0 0 15 15" fill="none" xmlns="http://www.w3.org/2000/svg">
<path d="M13.8086 12.3606L11.0742 9.62622C10.9375 9.51685 10.7734 9.43481 10.6094 9.43481H10.1719C10.9102 8.47778 11.375 7.27466 11.375 5.93481C11.375 2.81763 8.80469 0.247314 5.6875 0.247314C2.54297 0.247314 0 2.81763 0 5.93481C0 9.07935 2.54297 11.6223 5.6875 11.6223C7 11.6223 8.20312 11.1848 9.1875 10.4192V10.884C9.1875 11.0481 9.24219 11.2122 9.37891 11.3489L12.0859 14.0559C12.3594 14.3293 12.7695 14.3293 13.0156 14.0559L13.7812 13.2903C14.0547 13.0442 14.0547 12.634 13.8086 12.3606ZM5.6875 9.43481C3.74609 9.43481 2.1875 7.87622 2.1875 5.93481C2.1875 4.02075 3.74609 2.43481 5.6875 2.43481C7.60156 2.43481 9.1875 4.02075 9.1875 5.93481C9.1875 7.87622 7.60156 9.43481 5.6875 9.43481Z" fill="#6B7280"/>
</svg>

<svg xmlns="http://www.w3.org/2000/svg" width="15" height="15" fill="none"><path fill="#6B7280" d="m13.809 12.36-2.735-2.734c-.136-.11-.3-.191-.465-.191h-.437a5.701 5.701 0 0 0 1.203-3.5c0-3.117-2.57-5.688-5.688-5.688C2.543.247 0 2.817 0 5.935a5.683 5.683 0 0 0 5.688 5.687 5.651 5.651 0 0 0 3.5-1.203v.465a.64.64 0 0 0 .19.465l2.708 2.707c.273.273.684.273.93 0l.765-.766c.274-.246.274-.656.028-.93ZM5.688 9.436a3.49 3.49 0 0 1-3.5-3.5c0-1.914 1.558-3.5 3.5-3.5 1.914 0 3.5 1.586 3.5 3.5 0 1.941-1.586 3.5-3.5 3.5Z"/></svg>
